X: 26645
T: Middle Eastern
R: polka
M: 2/4
K: Adorian
|:A2 AB|c>B cd|ef/e/ dB|cA BG|
ED EG|A>G AB|ce dB|A2 A2:|
c>d ef|ge ee|de/d/ BA|GA BG|
c>d ef|ge ee|dB GB|A2 A2|
c>d ef|ge ee|dB gB|BA G2|
c>d ef|ge ee|dB GB|A2 A2||
|:ea ab|ea ab|eg gf|g>e dB|
ce/f/ e/d/B|cA BG|ED EG|A2 A2:|

